src/components/Icon/utils/svgsOptimized/arrow-line-down.svg

<?xml version="1.0" encoding="utf-8"?><svg width="24" height="24" xmlns="http://www.w3.org/2000/svg" viewBox="0 0 24 24"><path d="M11.59 14.85c.11.09.25.15.4.15.15 0 .29-.06.4-.15l3.37-2.75a.63.63 0 0 0 .07-.88.62.62 0 0 0-.88-.07l-2.34 1.86V6.62c0-.34-.28-.62-.62-.62-.34 0-.62.27-.62.62v6.39l-2.34-1.86a.63.63 0 0 0-.88.07.63.63 0 0 0 .07.88l3.37 2.75ZM6.3 16.8h11.4a.3.3 0 0 1 .3.3v.6a.3.3 0 0 1-.3.3H6.3a.3.3 0 0 1-.3-.3v-.6a.3.3 0 0 1 .3-.3Z"/></svg>

<svg width="24" height="24" viewBox="0 0 24 24"  xmlns="http://www.w3.org/2000/svg">
<path d="M11.59 14.85C11.7 14.94 11.84 15 11.99 15C12.14 15 12.28 14.94 12.39 14.85L15.76 12.1C16.02 11.88 16.05 11.48 15.83 11.22C15.61 10.96 15.21 10.92 14.95 11.15L12.61 13.01V6.62C12.61 6.28 12.33 6 11.99 6C11.65 6 11.37 6.27 11.37 6.62V13.01L9.03 11.15C8.77 10.93 8.38 10.96 8.15 11.22C7.93 11.48 7.96 11.88 8.22 12.1L11.59 14.85Z" />
<path d="M6.3 16.8H17.7C17.8657 16.8 18 16.9343 18 17.1V17.7C18 17.8657 17.8657 18 17.7 18H6.3C6.13431 18 6 17.8657 6 17.7V17.1C6 16.9343 6.13431 16.8 6.3 16.8Z" />
</svg>
